packages/web-icons/svgs/instagram_1.svg

<svg viewBox="0 0 48 48" xmlns="http://www.w3.org/2000/svg" class="ridi_icon"><path d="M24 4.3c6.4 0 7.2 0 9.7.1 2.3.2 3.6.6 4.5.9 1.1.4 1.9 1 2.8 1.8.9.8 1.4 1.6 1.8 2.8.2.8.6 2.1.7 4.4.1 2.5.1 3.3.1 9.7 0 6.4 0 7.2-.1 9.7-.1 2.3-.5 3.6-.8 4.5-.4 1.1-1 1.9-1.8 2.8-.8.8-1.6 1.4-2.8 1.8-.8.3-2.1.7-4.5.8-2.5.1-3.3.1-9.7.1-6.4 0-7.2 0-9.7-.1-2.2-.2-3.5-.6-4.4-.9-1.1-.4-1.9-1-2.8-1.8-.8-.8-1.4-1.6-1.8-2.8-.2-.8-.6-2.1-.7-4.4-.1-2.5-.1-3.3-.1-9.7 0-6.4 0-7.2.1-9.7.1-2.3.5-3.6.8-4.5.4-1.1 1-1.9 1.8-2.8.8-.9 1.6-1.4 2.8-1.8.8-.2 2.1-.6 4.4-.7 2.5-.2 3.3-.2 9.7-.2zM24 0c-6.5 0-7.3 0-9.9.1-2.6.2-4.3.6-5.8 1.2C6.7 1.9 5.4 2.7 4 4 2.7 5.3 1.8 6.7 1.2 8.3.6 9.8.2 11.6.1 14.1 0 16.7 0 17.5 0 24s0 7.3.1 9.9c.1 2.6.5 4.3 1.1 5.8.6 1.6 1.4 2.9 2.8 4.3 1.3 1.3 2.7 2.2 4.3 2.8 1.5.6 3.3 1 5.8 1.1 2.6.1 3.4.1 9.9.1s7.3 0 9.9-.1c2.6-.1 4.3-.5 5.8-1.1 1.6-.6 2.9-1.4 4.3-2.8 1.3-1.3 2.2-2.7 2.8-4.3.6-1.5 1-3.3 1.1-5.8.1-2.6.1-3.4.1-9.9s0-7.3-.1-9.9c-.1-2.6-.5-4.3-1.1-5.8-.7-1.6-1.5-2.9-2.8-4.3-1.3-1.3-2.7-2.2-4.3-2.8-1.5-.6-3.3-1-5.8-1.1C31.3 0 30.5 0 24 0z"/><path d="M24 11.7c-6.8 0-12.3 5.5-12.3 12.3 0 6.8 5.5 12.3 12.3 12.3 6.8 0 12.3-5.5 12.3-12.3 0-6.8-5.5-12.3-12.3-12.3zM24 32c-4.4 0-8-3.6-8-8s3.6-8 8-8 8 3.6 8 8-3.6 8-8 8z"/><circle cx="36.8" cy="11.2" r="2.9"/></svg>

<?xml version="1.0" encoding="UTF-8"?>
<svg width="48px" height="48px" viewBox="0 0 48 48" version="1.1" xmlns="http://www.w3.org/2000/svg">
  <!-- Generator: Sketch 41.2 (35397) - http://www.bohemiancoding.com/sketch -->
  <title>instagram_1</title>
  <desc>Created with Sketch.</desc>
  <defs></defs>
  <g id="Page-1" stroke="none" stroke-width="1" fill="none" fill-rule="evenodd">
    <g id="instagram_1" fill="#000000">
      <g id="Layer_1">
        <g id="Group">
          <path d="M24,4.3 C30.4,4.3 31.2,4.3 33.7,4.4 C36,4.6 37.3,5 38.2,5.3 C39.3,5.7 40.1,6.3 41,7.1 C41.9,7.9 42.4,8.7 42.8,9.9 C43,10.7 43.4,12 43.5,14.3 C43.6,16.8 43.6,17.6 43.6,24 C43.6,30.4 43.6,31.2 43.5,33.7 C43.4,36 43,37.3 42.7,38.2 C42.3,39.3 41.7,40.1 40.9,41 C40.1,41.8 39.3,42.4 38.1,42.8 C37.3,43.1 36,43.5 33.6,43.6 C31.1,43.7 30.3,43.7 23.9,43.7 C17.5,43.7 16.7,43.7 14.2,43.6 C12,43.4 10.7,43 9.8,42.7 C8.7,42.3 7.9,41.7 7,40.9 C6.2,40.1 5.6,39.3 5.2,38.1 C5,37.3 4.6,36 4.5,33.7 C4.4,31.2 4.4,30.4 4.4,24 C4.4,17.6 4.4,16.8 4.5,14.3 C4.6,12 5,10.7 5.3,9.8 C5.7,8.7 6.3,7.9 7.1,7 C7.9,6.1 8.7,5.6 9.9,5.2 C10.7,5 12,4.6 14.3,4.5 C16.8,4.3 17.6,4.3 24,4.3 L24,4.3 Z M24,0 C17.5,0 16.7,0 14.1,0.1 C11.5,0.3 9.8,0.7 8.3,1.3 C6.7,1.9 5.4,2.7 4,4 C2.7,5.3 1.8,6.7 1.2,8.3 C0.6,9.8 0.2,11.6 0.1,14.1 C0,16.7 0,17.5 0,24 C0,30.5 0,31.3 0.1,33.9 C0.2,36.5 0.6,38.2 1.2,39.7 C1.8,41.3 2.6,42.6 4,44 C5.3,45.3 6.7,46.2 8.3,46.8 C9.8,47.4 11.6,47.8 14.1,47.9 C16.7,48 17.5,48 24,48 C30.5,48 31.3,48 33.9,47.9 C36.5,47.8 38.2,47.4 39.7,46.8 C41.3,46.2 42.6,45.4 44,44 C45.3,42.7 46.2,41.3 46.8,39.7 C47.4,38.2 47.8,36.4 47.9,33.9 C48,31.3 48,30.5 48,24 C48,17.5 48,16.7 47.9,14.1 C47.8,11.5 47.4,9.8 46.8,8.3 C46.1,6.7 45.3,5.4 44,4 C42.7,2.7 41.3,1.8 39.7,1.2 C38.2,0.6 36.4,0.2 33.9,0.1 C31.3,0 30.5,0 24,0 L24,0 Z" id="Shape"></path>
          <path d="M24,11.7 C17.2,11.7 11.7,17.2 11.7,24 C11.7,30.8 17.2,36.3 24,36.3 C30.8,36.3 36.3,30.8 36.3,24 C36.3,17.2 30.8,11.7 24,11.7 Z M24,32 C19.6,32 16,28.4 16,24 C16,19.6 19.6,16 24,16 C28.4,16 32,19.6 32,24 C32,28.4 28.4,32 24,32 Z" id="Shape"></path>
          <circle id="Oval" cx="36.8" cy="11.2" r="2.9"></circle>
        </g>
      </g>
    </g>
  </g>
</svg>
